X:55
T:The Queen's Jig
M:6/8
L:1/8
Q:C6=116
B:The Round Band Book of Playford
K:D
A | "D"d2e fef | "G"g3 "D"fga | "Bm" fgf "Em"e2d | "A7"e3 A2A |\
"D"d2e fef | "G"g3 "D"fga | "D"fgf "A7"e2d | "D"d3-d2 :|
|:\
a | "D"aba "G"g2f | "A7"g3 "D"fga | "Bm"fgf "Em"e2d | "A7"e3 A2a |\
"D7"aba "G"g2f | "G"g3 "D"fga | "A"fgf "A7"e2d | "D"d3-d2 :|

